!!!COM:	Bach, Johann Sebastian
!!!CDT:	1685/02/21/-1750/07/28/
!!!OTL@@DE:	Gelobet seist du, Jesu Christ
!!!SCT:	BWV 64/2
!!!PC#:	160
!!!AGN:	chorale
**kern	**kern	**kern	**kern
*ICvox	*ICvox	*ICvox	*ICvox
*Ibass	*Itenor	*Ialto	*Isoprn
*I"Bass	*I"Tenor	*I"Alto	*I"Soprano
*clefF4	*clefGv2	*clefG2	*clefG2
*k[]	*k[]	*k[]	*k[]
*G:mix	*G:mix	*G:mix	*G:mix
*M4/4	*M4/4	*M4/4	*M4/4
*met(c)	*met(c)	*met(c)	*met(c)
*MM100	*MM100	*MM100	*MM100
4G	4B	4d	4g
=1	=1	=1	=1
4E	4B	4e	4g
4C	4c	4e	4g
4F	4c	4f	4a
4E	8cL	4g	4g
.	8dJ	.	.
=2	=2	=2	=2
4A	4e	4a	4cc
4G#	4f	4b	4dd
2A;	2e;	2a;	2cc;
=3	=3	=3	=3
4E	4e	4gnX	4b
4BB	4d	4g	4dd
4C	8cL	4g	4ee
.	8BJ	.	.
4D	4A	4f#	4dd
=4	=4	=4	=4
4G	8BL	4g	4b
.	8cJ	.	.
4D	4d	4f#	4a
4G;	4B;	4d;	4g;
4E	4B	4e	4g
=5	=5	=5	=5
4A	4c	8eL	4cc
.	.	8f#J	.
4G	4d	4g	4b
8BBL	4d	4g	4dd
8CJ	.	.	.
4D	8dL	4f#	4a
.	8cJ	.	.
=6	=6	=6	=6
4GG	4B	8eL	4g
.	.	8dJ	.
4AA	8AL	4c#	4e
.	8GJ	.	.
4D;	4F#;	4A;	4d;
8DL	8F#L	4d	4d
8EJ	8GJ	.	.
=7	=7	=7	=7
8F#L	8AL	4d	4a
8G	8BJ	.	.
8A	4c#	8aL	4a
8BJ	.	8gJ	.
4c	4d	4f#	4a
4B	4d	4g#	4b
=8	=8	=8	=8
4A	4e	4a	4cc
8AAL	4c	4fnX	4a
8BBJ	.	.	.
4C	4c	8eL	8gnXL
.	.	8f#J	8aJ
8BBL	[4d	[4g	4b
8CJ	.	.	.
=9	=9	=9	=9
4D	8dL]	4g]	2a
.	8A	.	.
8CL	8d	[4f	.
8DJ	8cJ	.	.
4E	4B	8fL]	4g
.	.	8dJ	.
8DL	[4c	[4e	4g
8CJ	.	.	.
=10	=10	=10	=10
2G	4c]	4e]	1g;
.	8BL	8dL	.
.	8AJ	8cJ	.
2GG;	2B;	2d;	.
==	==	==	==
*-	*-	*-	*-
!!!hum2abc: -Q ''
!!!title: @{PC#}. @{OTL@@DE}
!!!YOR1: 371 vierstimmige Choralges&auml;nge von Johann Sebastian Bach, 
!!!YOR2: 4th ed. by Alfred D&ouml;rffel (Leipzig: Breitkopf und H&auml;rtel, 
!!!YOR2: c.1875). 178 pp. Plate "V.A.10".  reprint: J.S. Bach, 371 Four-Part 
!!!YOR4: Chorales (New York: Associated Music Publishers, Inc., c.1940).
!!!SMS: B&H, 4th ed, Alfred D&ouml;rffel, c.1875, plate V.A.10
!!!EED:  Craig Stuart Sapp
!!!EEV:  2009/05/22
